icons/lines/calendar-edit.svg

<svg xmlns="http://www.w3.org/2000/svg" width="24" height="24" viewBox="0 0 24 24" fill="none" stroke="currentColor" stroke-width="2" stroke-linecap="round" stroke-linejoin="round" >
  <path d="M8 2V5" stroke-miterlimit="10"/>
  <path d="M16 2V5" stroke-miterlimit="10"/>
  <path d="M3.5 9.08997H20.5" stroke-miterlimit="10"/>
  <path d="M19.21 15.77L15.6701 19.31C15.5301 19.45 15.4 19.71 15.37 19.9L15.18 21.25C15.11 21.74 15.45 22.0801 15.94 22.0101L17.29 21.82C17.48 21.79 17.75 21.66 17.88 21.52L21.4201 17.9801C22.0301 17.3701 22.3201 16.6601 21.4201 15.7601C20.5301 14.8701 19.82 15.16 19.21 15.77Z" stroke-miterlimit="10"/>
  <path d="M18.7002 16.28C19.0002 17.36 19.8402 18.2 20.9202 18.5" stroke-miterlimit="10"/>
  <path d="M12 22H8C4.5 22 3 20 3 17V8.5C3 5.5 4.5 3.5 8 3.5H16C19.5 3.5 21 5.5 21 8.5V12" stroke-miterlimit="10"/>
  <path d="M11.9955 13.7H12.0045"/>
  <path d="M8.29431 13.7H8.30329"/>
  <path d="M8.29431 16.7H8.30329"/>
  </svg>

<svg xmlns="http://www.w3.org/2000/svg" width="24" height="24" viewBox="0 0 24 24" fill="none" stroke="currentColor" stroke-width="2" stroke-linecap="round" stroke-linejoin="round">
  <path d="M11.996 13.7h.01" />
  <path d="M12 22H8c-3.5 0-5-2-5-5V8.5c0-3 1.5-5 5-5h8c3.5 0 5 2 5 5V12" />
  <path d="M15.67 19.31a1.23 1.23 0 0 0-.3.59l-.19 1.35c-.07.49.27.83.76.76l1.35-.19a1.2 1.2 0 0 0 .59-.3l3.54-3.54c.61-.61.9-1.32 0-2.22-.89-.89-1.6-.6-2.21.01z" />
  <path d="M16 2v3" />
  <path d="M18.7 16.28a3.19 3.19 0 0 0 2.22 2.22" />
  <path d="M3.5 9.09h17" />
  <path d="M8 2v3" />
  <path d="M8.294 13.7h.01" />
  <path d="M8.294 16.7h.01" />
</svg>
